framework/flag-icon-css/km.svg

<svg xmlns="http://www.w3.org/2000/svg" height="480" width="640" viewBox="0 0 640 480">
  <defs>
    <clipPath id="a">
      <path fill-opacity=".67" d="M0 0h682.67v512H0z"/>
    </clipPath>
  </defs>
  <g clip-path="url(#a)" fill-rule="evenodd" transform="scale(.9375)">
    <path fill="#ff0" d="M0 0h768.77v128H0z"/>
    <path fill="#fff" d="M0 128h768.77v128H0z"/>
    <path fill="#be0027" d="M0 256h768.77v128H0z"/>
    <path fill="#3b5aa3" d="M0 384h768.77v128H0z"/>
    <path d="M0 0v512l381.86-255.28L0 0z" fill="#239e46"/>
    <path d="M157.21 141.43C72.113 137.12 33.34 204.9 33.43 257.3c-.194 61.97 58.529 113.08 112.81 109.99-29.27-13.84-65.008-52.66-65.337-110.25-.3-52.18 29.497-97.55 76.307-115.61z" fill="#fff"/>
    <path fill="#fff" d="M155.927 197.058l-11.992-9.385-14.539 4.576 5.215-14.317-8.831-12.41 15.227.528 9.065-12.238 4.195 14.649 14.452 4.846-12.644 8.524zM155.672 249.121l-11.993-9.385-14.538 4.576 5.215-14.317-8.831-12.41 15.227.528 9.065-12.238 4.194 14.649 14.453 4.846-12.645 8.524zM155.927 301.698l-11.992-9.385-14.539 4.576 5.215-14.317-8.831-12.41 15.227.528 9.065-12.239 4.195 14.65 14.452 4.846-12.644 8.524zM155.672 354.778l-11.993-9.385-14.538 4.576 5.215-14.317-8.831-12.41 15.227.528 9.065-12.239 4.194 14.65 14.453 4.846-12.645 8.524z"/>
  </g>
</svg>

<?xml version="1.0" encoding="UTF-8" standalone="no"?>
<svg
   xmlns:dc="http://purl.org/dc/elements/1.1/"
   xmlns:cc="http://creativecommons.org/ns#"
   xmlns:rdf="http://www.w3.org/1999/02/22-rdf-syntax-ns#"
   xmlns:svg="http://www.w3.org/2000/svg"
   xmlns="http://www.w3.org/2000/svg"
   xmlns:sodipodi="http://sodipodi.sourceforge.net/DTD/sodipodi-0.dtd"
   xmlns:inkscape="http://www.inkscape.org/namespaces/inkscape"
   height="16"
   width="21.333437"
   viewBox="0 0 21.333437 16"
   version="1.1"
   id="svg23"
   sodipodi:docname="km.svg"
   inkscape:version="0.92.1 r">
  <metadata
     id="metadata27">
    <rdf:RDF>
      <cc:Work
         rdf:about="">
        <dc:format>image/svg+xml</dc:format>
        <dc:type
           rdf:resource="http://purl.org/dc/dcmitype/StillImage" />
        <dc:title></dc:title>
      </cc:Work>
    </rdf:RDF>
  </metadata>
  <sodipodi:namedview
     pagecolor="#ffffff"
     bordercolor="#666666"
     borderopacity="1"
     objecttolerance="10"
     gridtolerance="10"
     guidetolerance="10"
     inkscape:pageopacity="0"
     inkscape:pageshadow="2"
     inkscape:window-width="1920"
     inkscape:window-height="1024"
     id="namedview25"
     showgrid="false"
     fit-margin-top="0"
     fit-margin-left="0"
     fit-margin-right="0"
     fit-margin-bottom="0"
     inkscape:zoom="0.49166667"
     inkscape:cx="320"
     inkscape:cy="240"
     inkscape:window-x="0"
     inkscape:window-y="0"
     inkscape:window-maximized="1"
     inkscape:current-layer="svg23" />
  <defs
     id="defs5">
    <clipPath
       id="a">
      <path
         d="M 0,0 H 682.67 V 512 H 0 Z"
         id="path2"
         inkscape:connector-curvature="0"
         style="fill-opacity:0.67000002" />
    </clipPath>
  </defs>
  <g
     clip-path="url(#a)"
     transform="scale(0.03125)"
     id="g21"
     style="fill-rule:evenodd">
    <path
       d="M 0,0 H 768.77 V 128 H 0 Z"
       id="path7"
       inkscape:connector-curvature="0"
       style="fill:#ffff00" />
    <path
       d="M 0,128 H 768.77 V 256 H 0 Z"
       id="path9"
       inkscape:connector-curvature="0"
       style="fill:#ffffff" />
    <path
       d="M 0,256 H 768.77 V 384 H 0 Z"
       id="path11"
       inkscape:connector-curvature="0"
       style="fill:#be0027" />
    <path
       d="M 0,384 H 768.77 V 512 H 0 Z"
       id="path13"
       inkscape:connector-curvature="0"
       style="fill:#3b5aa3" />
    <path
       d="M 0,0 V 512 L 381.86,256.72 Z"
       id="path15"
       inkscape:connector-curvature="0"
       style="fill:#239e46" />
    <path
       d="M 157.21,141.43 C 72.113,137.12 33.34,204.9 33.43,257.3 33.236,319.27 91.959,370.38 146.24,367.29 116.97,353.45 81.232,314.63 80.903,257.04 80.603,204.86 110.4,159.49 157.21,141.43 Z"
       id="path17"
       inkscape:connector-curvature="0"
       style="fill:#ffffff" />
    <path
       d="m 155.927,197.058 -11.992,-9.385 -14.539,4.576 5.215,-14.317 -8.831,-12.41 15.227,0.528 9.065,-12.238 4.195,14.649 14.452,4.846 -12.644,8.524 z m -0.255,52.063 -11.993,-9.385 -14.538,4.576 5.215,-14.317 -8.831,-12.41 15.227,0.528 9.065,-12.238 4.194,14.649 14.453,4.846 -12.645,8.524 z m 0.255,52.577 -11.992,-9.385 -14.539,4.576 5.215,-14.317 -8.831,-12.41 15.227,0.528 9.065,-12.239 4.195,14.65 14.452,4.846 -12.644,8.524 z m -0.255,53.08 -11.993,-9.385 -14.538,4.576 5.215,-14.317 -8.831,-12.41 15.227,0.528 9.065,-12.239 4.194,14.65 14.453,4.846 -12.645,8.524 z"
       id="path19"
       inkscape:connector-curvature="0"
       style="fill:#ffffff" />
  </g>
</svg>
